X:1
T:Title
%%score ( 1 2 ) { 3 | 4 }
L:1/8
Q:1/4=95
M:4/4
K:G
V:1 treble nm="Grand Piano, Soprano"
V:2 treble 
V:3 bass nm="Choir Pad, In the Hollow of God’s Hand"
V:4 bass 
V:1
 [B,D]2 [_B,^C][=B,D] [_B,E]2 [=B,D]2 | .G2 z2 z4 | [DB][DB][^C_B][D=B] [=Fd][Fd][^Fd][FA] | %3
w: By~Lelia~Naylor~Morris * * * *|||
 [EG]2 [^CE]2 D2 =C2 | [B,D]2 [_B,^C][=B,D] [_B,E]2 [=B,D]2 | .G2 z2 z4 | %6
w: |||
 [Gd][Gd][Ee][Ed] [Ed][Ed]E[Ec] | [DB]2 [CA]2 [B,G]4 | [Bd]2 [Bd]>[Bd] [ce]<[Bd] [DB][B,D] | %9
w: |||
 E6 z2 | [FA]2 [FA]>[FA] [FA]<[Ac] [GB][FA] | G2 A-[FA] [GB]2 z2 | [GB][GB][Fc][Fc] [Gd]2 [GB]2 | %13
w: ||||
 [Gd][Gd][B^d][Bd] [Be]2 E2 | [DG][DG][DG][DG] [CG][CG][_B,G][B,G] | [B,G]2 [DF]2 [DG]4- | %16
w: |||
 [DG]4 z4 |] %17
w: |
V:2
 x8 | D-[DF][DE][DF] [DG]2 [B,D]2 | x8 | x8 | x8 | D-[DF][DE][DF] [DG]2 [DB]2 | x8 | x8 | x8 | %9
 C2 DD C2 z2 | x8 | z2 .F2 z4 | x8 | x8 | x8 | x8 | x8 |] %17
V:3
 G,2 E,D, ^C,2 D,G, | B,A,G,A, B,2 G,2 | G,G,G,G, B,B,[K:treble]DD | ^C2 A,G,[K:bass] F,4 | %4
 G,2 E,D, ^C,2 D,G, | B,A,G,A, B,2 G,2 | B,B,B,B,[K:treble] CCCA, | G,2[K:bass] F,2 D,4 | %8
 G,4 G,2 G,2 | G,G,^G,G, A,2 z2 | D4 D2 D2 | B,B,CC D2 z2 | DDDD D2 D2 | B,B,A,A, G,2 G,2 | %14
 B,B,B,B, G,G,G,G, | G,2 A,C B,4- | B,4 z4 |] %17
V:4
 G,,2 G,,G,, G,,2 G,,2 | D,2 D,D, G,2 z2 | z4 ^G,G,A,A, | A,2 A,,2 D,4 | G,,2 G,,G,, G,,2 G,,2 | %5
 D,2 D,D, G,2 z2 | G,G,^G,G, A,A,C,C, | D,2 D,2 G,,4 | G,,4 G,,2 G,,2 | C,C,B,,B,, A,,2 z2 | %10
 D,4 D,2 D,2 | G,G,D,D, G,2 z2 | G,G,A,A, B,2 G,2 | G,G,F,F, E,2 E,2 | D,D,=F,F, E,E,^D,D, | %15
 D,2 D,2 G,,4- | G,,4 z4 |] %17

